X: 1
T:Ballo La Vienna Corentina e suo Saltarello
C:Roberto Tombesi
S:Organetto diatonico
M:2/4
L:1/16
K:C
cdef g2g2|agaf g2e2|cdef g2fe|defd e2c2:|
|:egfe dfed|cedc B2G2|cdef g2fe|1 dfed c2c2:|2 dfed c4||
"Suo Saltarello"|:cdef g2fg a2gf g2e2|cdef g2fe d2ef e2c2:|
|:e2ge d2fd c2ec B2AG|a2gf e2dc G2dB c2c2:|
